X:20
T:PATNEAL- Patrick O'Neil
S:from MS, c 1795-1800
Q:1/4=120
L:1/8
M:6/8
K:D
DFA d2e|fgf fed|cBc ABA|GEC C3|\
DFA d2e|fgf fed|cBc efg|fdd d3::\
f/g/|aba age|fgf fed|cBc ABA|GEC C2f/g/|\
aba age|fgf fed|cBc efg|fBBB2:|]

